X: 2
T:Kesh Jig, The
T:Kerrigan's Jig
M:6/8
L:1/8
R:Jig
Z:Boston  It is _very_ widely played.
K:G
D|GAG GAB|ABA ABd|edd gdd|edB dBA|G2 G GAB|ABA ABd|edd gdB|AGF G2:|
A|BAB dBd|ege dBA|B2 B dBG|ABA AGA|BAB dBd|ege dBd|g2 g aga|bgf g2:|
